frontend/public/svg/interface/pencil-2.svg

<svg width="151" height="149" viewBox="0 0 151 149" fill="none" xmlns="http://www.w3.org/2000/svg">
<g clip-path="url(#clip0)">
<path d="M6.22296 148.379C3.07752 148.346 1.42875 146.746 1.36875 143.992C1.35956 143.214 1.4585 142.439 1.66283 141.688C3.96892 132.991 6.41008 124.328 8.58249 115.597C9.52763 111.362 11.5886 107.456 14.5525 104.281C22.6355 95.8167 30.5868 87.2255 38.7645 78.8548C60.2764 56.8356 82.8369 35.9202 105.99 15.6347C111.017 11.2304 115.963 6.72785 121.106 2.46216C124.166 -0.0753939 125.338 -0.0174305 128.429 2.61577C132.838 6.3733 137.087 10.3208 141.363 14.2319C143.665 16.3368 145.872 18.5452 148.139 20.6884C151.074 23.4635 151.067 26.4284 148.27 29.3727C143.817 34.0574 139.483 38.8507 135.025 43.5282C133.42 45.2121 131.568 46.6572 129.889 48.2728C103.622 73.5526 77.36 98.837 51.1023 124.126C46.9336 128.138 42.7597 132.147 38.4873 136.048C37.3799 136.986 36.1105 137.713 34.7413 138.195C26.5282 141.351 18.2938 144.451 10.0381 147.494C8.78969 147.881 7.51462 148.178 6.22296 148.379ZM29.0705 121.225L117.54 36.3145C115.605 34.5037 113.763 32.7782 111.597 30.7494C81.2117 57.9162 53.5695 87.7082 24.8432 116.675L29.0705 121.225ZM37.2984 129.668C66.8293 101.17 96.4713 73.5389 124.781 44.6338L122.193 41.3415C91.6589 68.8067 62.6163 97.2189 32.8583 124.735L37.2984 129.668ZM20.8472 113.027C49.0772 83.3287 77.4108 54.5732 107.13 26.88L104.078 24.1727C73.938 51.0805 45.3091 79.3681 17.8734 108.998C18.5817 109.881 19.0779 110.464 19.5338 111.08C19.9349 111.617 20.2871 112.188 20.8499 113.027H20.8472ZM142.692 26.0009C137.769 19.7201 127.209 9.38968 124.087 7.75458L110.143 19.8777L131.274 38.5073C135.146 34.2702 138.87 30.1898 142.695 26.0009H142.692ZM13.7634 112.814C12.6763 118.399 11.694 123.266 10.8194 128.152C10.7119 128.898 10.8934 129.657 11.3268 130.273C13.3349 132.776 15.4661 135.181 17.6333 137.714L30.6253 132.753L13.7634 112.814Z" fill="black"/>
</g>
<defs>
<clipPath id="clip0">
<rect width="150" height="149" fill="white" transform="translate(0.777344)"/>
</clipPath>
</defs>
</svg>

<svg xmlns="http://www.w3.org/2000/svg" width="151" height="149" fill="none" viewBox="0 0 151 149"><g clip-path="url(#a)"><path fill="#000" d="M6.223 148.379c-3.145-.033-4.794-1.633-4.854-4.387-.01-.778.09-1.553.294-2.304 2.306-8.697 4.747-17.36 6.92-26.091a24.36 24.36 0 0 1 5.97-11.316c8.083-8.464 16.034-17.056 24.211-25.426 21.512-22.02 44.073-42.935 67.226-63.22 5.027-4.405 9.973-8.907 15.116-13.173 3.06-2.537 4.232-2.48 7.323.154 4.409 3.757 8.658 7.705 12.934 11.616 2.302 2.105 4.509 4.313 6.776 6.456 2.935 2.776 2.928 5.74.131 8.685-4.453 4.684-8.787 9.478-13.245 14.155-1.605 1.684-3.457 3.13-5.136 4.745q-39.4 37.92-78.787 75.853c-4.168 4.012-8.342 8.021-12.615 11.922a11.9 11.9 0 0 1-3.746 2.147 1923 1923 0 0 1-24.703 9.299 27 27 0 0 1-3.815.885m22.847-27.154 88.47-84.91-5.943-5.566C81.212 57.916 53.57 87.71 24.843 116.675zm8.228 8.443c29.531-28.498 59.173-56.13 87.483-85.034l-2.588-3.292c-30.534 27.465-59.577 55.877-89.335 83.393zm-16.45-16.641C49.077 83.329 77.41 54.573 107.13 26.88l-3.052-2.707c-30.14 26.908-58.769 55.195-86.205 84.825.709.883 1.205 1.466 1.66 2.082.402.537.754 1.108 1.317 1.947zm121.844-87.026c-4.923-6.28-15.483-16.611-18.605-18.246l-13.944 12.123 21.131 18.63c3.872-4.238 7.596-8.318 11.421-12.507zM13.763 112.814c-1.087 5.585-2.069 10.452-2.944 15.338a2.95 2.95 0 0 0 .508 2.121c2.008 2.503 4.14 4.908 6.306 7.441l12.992-4.961z"/></g><defs><clipPath id="a"><path fill="#fff" d="M.777 0h150v149h-150z"/></clipPath></defs></svg>
